X:1
T:If  love and all the world - Webbe
T:#
%%score [ 1 { 2 | 3 } 4 ]
L:1/8
Q:1/4=90
M:4/4
K:F
V:1 treble-8 nm="Alto" snm="A"
V:2 treble-8 nm="Tenor II"
V:3 treble-8 
V:4 bass nm="Bass" snm="B"
V:1
"^If love and all the world were young""^Samuel Webbe\n(1740-1816)""^moderato""^Sir Walter Raleigh" c2 | %1
w: If|
 f3 f g3 a | b2 g2 a4 | z8 |[M:4/4][K:treble-8] z4 z2 e2 | f2 f2 f2 e2 | d2 e2 f2 e2 | %7
w: love and all the|world were young,||Thy|fan- cied plea- sures|might me move, And|
 (d g2) f ec z2 |!p! d3 (e/f/) (fe) z2 |!f! (d g2) f ec z2 |!p! d3 (c/d/) c2 z!f! c | c6 g2 | %12
w: I * might li- sten|to thy * love, *|I * might li- sten|to thy * love. But|time drives|
 ecde f2 z a | a2 g2 f2 g2- | g2 f2 e3 e | a2 g2 f2 g2- | %16
w: flocks from field to fold; The|ri- vers rage, ri\-|* vers rage, and|hills grow cold, hills|
 g2 f2[Q:1/4=45] !fermata!e2!p![Q:1/4=90] e2 | f2 f2 e3 e | e2 e2 f2 z2 | z8 | %20
w: * grow cold, Then|droop- ing Phi- lo-|mel is dumb,||
 z4 z2 z"^piu lento"[Q:1/4=80] c | c3 c _d3 c | B2 B2 c2 z c | %23
w: Then|droop- ing Phi- lo-|mel is dumb, And|
[Q:1/4=80][Q:1/4=80][Q:1/4=80][Q:1/4=80] f3 g _a3 f | b2 T_a2[Q:1/4=40] !fermata!g2 | %25
w: age com- plains of|cares to come.|
[M:6/8]"^in a pastoral manner"[Q:1/4=90] z | z8 x | z3 z2!p! f x2 | f3- f2 f | %29
w: ||thy|beds * of|
[M:6/8][K:treble-8][Q:1/4=90][Q:1/4=90][Q:1/4=90][Q:1/4=90] f3 f2 a | (a3- ag)a | b3 b3 | %32
w: ro- ses, Thy|cap, * * thy|kir- tle,|
 (g3- ga)b | a3 f2!f! a | g3 (cde) | f3- f2 f | (ef)g f2 e | (e3 d2) g | g3 f3 | e3 (def) | %40
w: and * * thy|po- sies. All|these in * *|me, * in|me * can no- thing|move, * To|live with|thee and * *|
 e3 Td3 | c3- c2 :: z | z6 | z3 z2!p! c | (c3- cd)e | f3- f2!f! f | f3 f3 | (f3- fg)a | b3 a3 | %50
w: be thy|love. *|||and|love * * re-|main, * Had|joy no|date, * * and|age no|
 (a g2- g2)!p! g | (g3- ga)b | a3 f3 | f3 f3 | f3- f2!f! f | f3 e3 | (f3- fd)B | A3 TG3 | F3- F2 :| %59
w: pain, * * Then|these * * de-|lights my|mind might|move, * And|I might|li\- * * sten|to thy|love. *|
V:2
 z2 | z ccf e3 f | g2 e2 f2 z c | c2 B2 A2 f2 |[M:4/4][K:treble-8] d2 g2 (fe) z2 | z ccd d2 c2 | %6
w: |If love and all the|world were young, And|truth on ev'- ry|shep- herd's tongue, *|Thy fan- cied plea- sures|
 =B2 c2 d2 c2 | =B3 B cc z2 |!p! c2 =B2 c2 z2 |!f! =B3 B cG!p! c2- | c2 =B2 c2 z!f! G | %11
w: might me move, And|I might li- sten|to thy love,|I might li- sten to|* thy love. But|
 G2 A2 _B2 z B | B3 B A2 z2 | z A=B^c d4 | z efd ^c4 | z A=B^c d4 | z efd !fermata!^c2!p! c2 | %17
w: time drives flocks from|field to fold;|The ri- vers rage,|the ri- vers rage,|and hills grow cold,|and hills grow cold, Then|
 d2 d2 e3 =c | c2 c2 c2 z c | c3 c _e3 c | (dc) (BA) G2 z"^piu lento" G | _A3 A B3 A | %22
w: droop- ing Phi- lo-|mel is dumb, And|age com- plains of|care * to * come. Then|droop- ing Phi- lo-|
 G2 G2 _A2 z c | _d3 d c3 f | =e2 Tf2 !fermata!e2 |[M:4/4]!p! c | (c3- c B)A (A3- | AB)c (def fe) | %28
w: mel is dumb, And|age com- plains of|cares to come.|Thy|gowns, * * thy belts,|* * thy beds * * * *|
 d x5 |[M:6/8][K:treble-8] d3 c2 f | f3- f2 f | f3 f3 | f3- f2 f | f3 f2!f! c | d3 c3 | c3 (=Bcd) | %36
w: of|ro- ses, Thy|cap, * thy|kir- tle,|and * thy|po- sies. All|these in|me, in * *|
 (cd)e d2 c | (c3 =B2) B | (cde) (fed) | e2 c c3- | c3 =B3 | c3- c2 ::!p! G | (G3- GA)=B | %44
w: me * can no- thing|move, * To|live * * with * *|thee and be|* thy|love. *|If|youth * * could|
 c3- c2 c | c3 c3 | c3- c2!f! c | c3 f3 | d3 f3 | e3 f3 | (f e2- e2)!p! e | (e3- ef)g | f3 c3 | %53
w: last, * and|love re-|main, * Had|joy no|date, and|age no|pain, * * Then|these * * de-|lights my|
 (c3- cd)_e | d3- d2!f! d | c3 c3 | (c3 db)g | f3 Te3 | f3- f2 :| %59
w: mind * * might|move, * And|I might|li\- * * sten|to thy|love. *|
V:3
 z2 | z AAA c3 c | c2 c2 c2 z2 | z CDE (FG) (AF) |[M:4/4][K:treble-8] (BA) (BG) c2 z2 | %5
w: |If love and all the|world were young,|And truth on ev'\- * ry *|shep\- * herd's * tongue,|
 z AAA =B2 c2 | d2 c2 =B2 z2 | z GGG GE z2 |!p! A2 G2 G2 z2 | z!f! G2 G GE z2 | %10
w: Thy fan- cied plea- sures|might me move,|And I might li- sten|to thy love,|I might li- sten|
!p! A2 G2 E2 z!f! E | E2 F2 G2 z G | G3 G F2 z2 | z4 z ABG | A8- | A4 z ABG | !fermata!A6!p! A2 | %17
w: to thy love. But|time drives flocks from|field to fold;|The ri- vers|rage,|* and hills grow|cold, Then|
 (FG) (A=B) c3 G | G2 G2 A2 z A | A3 A c3 A | (BA) (GF) E2 z"^piu lento" E | F3 F F3 F | %22
w: droop\- * ing * Phi- lo-|mel is dumb, And|age com- plains of|care * to * come. Then|droop- ing Phi- lo-|
 G2 _E2 E2 z _A | _A2 B2 c3 c | c2 c2 !fermata!c2 |[M:4/4]!p! =A | (A3- A G)F x3 | (F3- F G)A x2 | %28
w: mel is dumb, And|age com- plains of|cares to come.|Thy|gowns, * * thy|belts, * * thy|
 (Bcd d c)B |[M:6/8][K:treble-8] B3 A2 c | (c3- cB)c | d3 d3 | (B3- Bc)d | c3 A2!f! A | %34
w: beds * * * * of|ro- ses, Thy|cap, * * thy|kir- tle,|and * * thy|po- sies. All|
 (=B3 c2) G | (FGA) G3 | G2 G (A=B)c | G3- G3 | z2 G A2 =B | c3 A3 | G3 G3 | E3- E2 ::!p! G | %43
w: these * in|me, * * in|me can no\- * thing|move, *|To live with|thee and|be thy|love. *|If|
 G3 F3 | E3- E2 c | c3 B3 | A3- A2!f! A | (A3- AB)c | d3 c3 | c3 c3 | c3- c2!p! c | c3- c2 c | %52
w: youth could|last, * and|love re-|main, * Had|joy * * no|date, and|age no|pain, * Then|these * de-|
 c3 F3 | F3 A3 | B3- B2!f! B | F3 B3 | (A3 GF)G | (ABc- c2) B | A3- A2 :| %59
w: lights my|mind might|move, * And|I might|li\- * * sten|to * * * thy|love. *|
V:4
 z2 | z F,F,F, C,2 C,2 | C,2 C,2 F,4 | z8 |[M:4/4] z4 z2 C2 | A,2 F,2 G,2 G,2 | G,2 G,2 G,2 G,2 | %7
w: |If love and all the|world were young,||Thy|fan- cied plea- sures|might me move, And|
 G,2 G,2 C,E, z2 | F,2 G,2 C,2 z2 |!f! G,2 G,,2 C,E, z2 |!p! F,2 G,2 C,2 z!f! E, | %11
w: I might li- sten|to thy love,|I might li- sten|to thy love. But|
 C,2 C,2 C,2 C,2 | C,2 C,2 F,2 z F, | F,2 E,2 D,4- | D,4 A,3 A, | F,2 E,2 D,4- | %16
w: time drives flocks from|field to fold; The|ri- vers rage,|* rage, and|hills grown cold,|
 D,2 D,2 !fermata!A,,2!p! A,,2 | D,2 D,2 C,3 C, | C,2 C,2 F,2 z F, | F,3 F, F,3 F, | %20
w: * grow cold, Then|droop- ing Phi- lo-|mel is dumb, And|age com- plains of|
 B,,2 B,,2 C,2 z"^piu lento" C, | F,3 F, B,,3 B,, | _E,2 E,2 _A,,2 z A,, | _D,2 B,,2 _A,,3 _A, | %24
w: care to come. Then|droop- ing Phi- lo-|mel is dumb, And|age com- plains of|
 G,2 F,2 !fermata!C,2 |[M:6/8] z | z3 z2!p! F, x3 | F,3- F,2 F, x2 | B,,3- B,,2 B,, | %29
w: cares to come.||thy|belts, * thy|beds * of|
[M:6/8] F,3 F,2 F, | F,3- F,2 F, | F,3 F,3 | F,3- F,2 F, | F,3 F,2!f! F, | F,3 E,3 | %35
w: ro- ses, Thy|cap, * thy|kir- tle,|and * thy|po- sies. All|these in|
 D,3 (G,,A,,=B,,) | C,3 F,3 | G,3- G,2 F, | E,3 D,3 | C,3 F,3 | G,3 G,3 | C,3- C,2 :: z | z6 | z6 | %45
w: me can * *|no- thing|move, * To|live with|thee and|be thy|love. *||||
 z6 | z3 z2!f! F, | (F,3- F,G,)A, | B,3 A,3 | G,3 F,3 | C,3- C,2!p! C, | C,3- C,2 C, | F,3 A,,3 | %53
w: |Had|joy * * no|date, and|age no|pain, * Then|these * de-|lights my|
 (A,,3- A,,B,,)C, | B,,3- B,,2!f! B, | A,3 G,3 | F,3 B,,3 | C,3 C,3 | F,3- F,2 :| %59
w: mind * * might|move, * And|I might|li- sten|to thy|love. *|

